X: 1
T: Rosin the Bow
R: waltz, jig, ballad
Z: 1997 by John Chambers <jc:trillian.mit.edu>
M: 6/8
L: 1/8
K: G
D \
| "G"G>FG BAG | Bd2 "C"e>fg | "G"d>BG "Em"GAB | "C"E3 "D7"DEF \
| "G"G>FG BAG | Bd2 "C"e>fg | "G"d>BG "D7"ABA | "G"G3- G :|
|: Bc \
| "G"dBd  def | "C"g2e    g2e  | "G"dBG  "Em"GAB | "C"E3 "D7"DEF \
| "G"G>FG BAG |    Bd2 "C"e>fg | "G"d>BG "D7"ABA | "G"G3- G :|
